X:1
T:John Williams' March
F:http://www.hiico.com/abc/john_williams_march.abc
O:Chicago
K:D
M:4/4
L:1/8
C:John Williams 
H:John Williams runs the Irish music session at Tommy Nevin's Pub in Evanston, IL
Z:Lee Wenzbauer lee@hiico.com 23 August, 2004
DF |: "D" A2 A>B AFED | f2 f>d "G" edBd |1 "D" A2 A>B AFED | "A" E2E>FE2 DF :|2 "D" A2de "A" fedc | "D" d2 d>c dz Ad 
|: "D" f2A2 Adfa | "G" g2 fg "A" e2 fg | "D" afdA FAGF | "A" E2E>FE2 DF | "D" A2 DFAdfa | "G" gfed "A" cBAG | "D" FAdf "A" gedc | "D" d2 d>c d2 :|
